X:1
T:Kjellman, 65.65
T:Kjellman, 65.65
T:Gerda Kjellman, before 1932
T:Public Domain Courtesy of the Cyber Hymnal™
C:Gerda Kjellman, before 1932
Z:Public Domain
Z:Courtesy of the Cyber Hymnal™
%%score ( 1 2 ) ( 3 4 )
L:1/8
Q:1/4=115
M:6/8
K:Eb
V:1 treble 
V:2 treble 
V:3 bass 
V:4 bass 
V:1
 [EG]2 [EG] [EB]2 [EG] | [EG]3 [DF]3 | [FA]2 [FA] [Fc]2 [FB] | [EG]6 | [Ec]2 [Ec] (ed)[Ec] | %5
 [EB]3 [EG]3 | [EG]2 [CF] [CA]2 [B,D] | [B,E]6 |] %8
V:2
 x6 | x6 | x6 | x6 | x3 E2 x | x6 | x6 | x6 |] %8
V:3
 [E,B,]2 [E,B,] [E,G,]2 [E,B,] | [B,,B,]3 B,3 | [F,C]2 [E,C] [D,B,]2 [D,B,] | [E,G,]6 | %4
 [A,,A,]2 [A,,A,] (CB,)[A,,A,] | [E,G,]3 [E,B,]3 | [E,B,]2 [A,,A,] [F,,A,]2 [B,,A,] | [E,G,]6 |] %8
V:4
 x6 | x3 B,3 | x6 | x6 | x3 A,,2 x | x6 | x6 | x6 |] %8

